symbols/web/polymer/materialsymbolsoutlined/polymer_wght100_24px.svg

<svg xmlns="http://www.w3.org/2000/svg" height="24" width="24"><path d="M6.35 18.4 2.8 12l3.6-6.4h3.2L6 12l2.1 3.7 6.2-10.1h3.3l3.6 6.4-3.6 6.4h-3.2L18 12l-2.1-3.7-6.2 10.1Z"/></svg>

<svg xmlns="http://www.w3.org/2000/svg" height="24" width="24"><path d="M6.35 18.4 2.8 12 6.4 5.6H9.6L6 12L8.1 15.7L14.3 5.6H17.6L21.2 12L17.6 18.4H14.4L18 12L15.9 8.3L9.7 18.4Z"/></svg>
